sequoia/src/components/Popups/PopupConnect/assets/wallet.svg

<svg width="101" height="100" viewBox="0 0 101 100" fill="none" xmlns="http://www.w3.org/2000/svg">
<path d="M32.4275 38.336C42.6168 28.3577 59.1332 28.3577 69.3357 38.336L70.5615 39.5356C71.0756 40.0365 71.0756 40.8405 70.5615 41.3414L66.3698 45.454C66.1194 45.7045 65.6976 45.7045 65.4471 45.454L63.7599 43.8064C56.6551 36.8465 45.1213 36.8465 38.0165 43.8064L36.2106 45.5727C35.9602 45.8231 35.5383 45.8231 35.2879 45.5727L31.083 41.4601C30.5689 40.9592 30.5689 40.1551 31.083 39.6542L32.4275 38.336ZM78.0091 46.8249L81.7394 50.4762C82.2535 50.9771 82.2535 51.7812 81.7394 52.2821L64.9067 68.7721C64.3926 69.273 63.5754 69.273 63.0613 68.7721L51.1057 57.0669C50.9739 56.9483 50.7761 56.9483 50.6443 57.0669L38.7019 68.7721C38.1878 69.273 37.3706 69.273 36.8565 68.7721L20.0106 52.2952C19.4965 51.7943 19.4965 50.9903 20.0106 50.4894L23.7409 46.8381C24.255 46.3372 25.0722 46.3372 25.5863 46.8381L37.5419 58.5433C37.6737 58.6619 37.8715 58.6619 38.0033 58.5433L49.9457 46.8381C50.4598 46.3372 51.277 46.3372 51.7911 46.8381L63.7467 58.5433C63.8785 58.6619 64.0763 58.6619 64.2081 58.5433L76.1637 46.8381C76.6646 46.324 77.495 46.324 78.0091 46.8249Z" fill="#3A99FB"/>
</svg>

<svg width="101" height="100" fill="none" xmlns="http://www.w3.org/2000/svg"><path d="M32.43 38.34a26.5 26.5 0 0 1 36.9 0l1.23 1.2c.52.5.52 1.3 0 1.8l-4.19 4.11a.66.66 0 0 1-.92 0l-1.69-1.64a18.48 18.48 0 0 0-25.74 0l-1.8 1.76a.66.66 0 0 1-.93 0l-4.2-4.11c-.52-.5-.52-1.3 0-1.8l1.34-1.32ZM78 46.82l3.73 3.66c.51.5.51 1.3 0 1.8L64.9 68.78c-.52.5-1.33.5-1.85 0L51.11 57.06a.34.34 0 0 0-.47 0L38.7 68.77c-.51.5-1.33.5-1.84 0L20 52.3c-.51-.5-.51-1.31 0-1.81l3.73-3.65c.52-.5 1.33-.5 1.85 0l11.95 11.7c.13.12.33.12.46 0l11.95-11.7c.51-.5 1.33-.5 1.84 0l11.96 11.7c.13.12.33.12.46 0l11.95-11.7a1.3 1.3 0 0 1 1.85-.02Z" fill="#3A99FB"/></svg>
